docs/img/WhatsApp-24.svg

<svg width="24" height="24" viewBox="0 0 24 24" fill="none" xmlns="http://www.w3.org/2000/svg">
<path fill-rule="evenodd" clip-rule="evenodd" d="M4.60518 19.5059L7.633 18.712L7.92513 18.8853C9.15341 19.6139 10.5614 19.9994 11.9969 20H12.0001C16.4095 20 19.9982 16.4125 20 12.0029C20.0008 9.86604 19.1695 7.85685 17.6591 6.34523C16.1487 4.83362 14.1401 4.00074 12.0033 4C7.59055 4 4.00175 7.58718 4 11.9964C3.99938 13.5075 4.42233 14.9791 5.22314 16.2523L5.41335 16.5549L4.60518 19.5059ZM16.5198 14.075C16.6875 14.156 16.8008 14.2107 16.8492 14.2914C16.9093 14.3917 16.9093 14.873 16.709 15.4347C16.5085 15.9962 15.5477 16.5088 15.0856 16.5778C14.6713 16.6397 14.1469 16.6655 13.5708 16.4825C13.2215 16.3717 12.7736 16.2238 12.1998 15.9761C9.94519 15.0029 8.42153 12.8185 8.13356 12.4056C8.11339 12.3767 8.09928 12.3565 8.09141 12.346L8.08947 12.3434C7.9622 12.1736 7.1094 11.0362 7.1094 9.85901C7.1094 8.75161 7.65357 8.17117 7.90405 7.904C7.92121 7.88569 7.93699 7.86886 7.95112 7.85342C8.17156 7.61273 8.43213 7.55256 8.59245 7.55256C8.75276 7.55256 8.91326 7.55404 9.05338 7.56108C9.07067 7.56195 9.08866 7.56184 9.10725 7.56173C9.2474 7.56091 9.42212 7.55989 9.59449 7.97377C9.6608 8.13306 9.75784 8.36921 9.86018 8.61827C10.0671 9.1219 10.2958 9.67832 10.336 9.75884C10.3961 9.87919 10.4362 10.0195 10.356 10.18C10.344 10.2041 10.3329 10.2268 10.3222 10.2485C10.262 10.3714 10.2177 10.4618 10.1155 10.5811C10.0754 10.628 10.0338 10.6785 9.9923 10.7291C9.90956 10.8298 9.82683 10.9305 9.75479 11.0023C9.63439 11.1222 9.50906 11.2522 9.64935 11.4929C9.78964 11.7336 10.2723 12.5208 10.9873 13.1583C11.7558 13.8436 12.4238 14.1332 12.7623 14.28C12.8285 14.3087 12.882 14.3319 12.9213 14.3516C13.1617 14.472 13.302 14.4518 13.4423 14.2914C13.5826 14.131 14.0435 13.5894 14.2038 13.3488C14.3641 13.1082 14.5245 13.1482 14.7449 13.2284C14.9654 13.3087 16.1478 13.8903 16.3883 14.0106C16.4352 14.0341 16.4791 14.0553 16.5198 14.075Z" fill="#FF0033"/>
</svg>

<svg xmlns="http://www.w3.org/2000/svg" width="24" height="24" fill="none"><path fill="#F03" fill-rule="evenodd" d="m4.605 19.506 3.028-.794.292.173A8 8 0 0 0 11.997 20H12c4.41 0 7.998-3.587 8-7.997 0-2.137-.83-4.146-2.34-5.658A7.95 7.95 0 0 0 12.002 4c-4.411 0-8 3.587-8.002 7.996a8 8 0 0 0 1.223 4.256l.19.303zm11.915-5.431c.168.081.28.136.33.216.06.1.06.582-.141 1.144s-1.161 1.074-1.623 1.143c-.415.062-.94.088-1.515-.095-.35-.111-.797-.26-1.371-.507-2.255-.973-3.778-3.158-4.066-3.57l-.043-.06-.002-.003c-.127-.17-.98-1.307-.98-2.484 0-1.107.545-1.688.795-1.955l.047-.05c.22-.241.481-.301.641-.301s.321.001.461.008h.054c.14 0 .315-.001.487.413l.266.644c.207.504.436 1.06.476 1.14.06.121.1.262.02.422l-.034.069c-.06.122-.104.213-.206.332l-.124.148c-.082.1-.165.202-.237.273-.12.12-.246.25-.106.49.14.242.623 1.029 1.338 1.666.769.686 1.437.975 1.775 1.122q.1.043.16.072c.24.12.38.1.52-.06.14-.161.601-.703.762-.943.16-.24.32-.2.54-.12s1.404.661 1.644.782z" clip-rule="evenodd"/></svg>
